dist/icons/svgs/file-excel-solid.svg

<svg xmlns="http://www.w3.org/2000/svg" width="24" height="24" fill="currentcolor" class="icon-file-excel-solid" viewBox="0 0 24 24">
  <path d="M7.5 2H13.75V7C13.75 7.70312 14.2969 8.25 15 8.25H20V19.5C20 20.9062 18.8672 22 17.5 22H7.5C6.09375 22 5 20.9062 5 19.5V4.5C5 3.13281 6.09375 2 7.5 2ZM15 2L20 7H15V2ZM11.0547 11.8047C10.7812 11.375 10.1953 11.2578 9.76562 11.5703C9.33594 11.8438 9.21875 12.4297 9.53125 12.8594L11.3281 15.4375L9.53125 18.0547C9.21875 18.4453 9.33594 19.0312 9.76562 19.3438C10.1953 19.6562 10.7812 19.5391 11.0547 19.1094L12.5 17.0781L13.9062 19.1094C14.2188 19.5391 14.7656 19.6562 15.1953 19.3438C15.625 19.0312 15.7422 18.4844 15.4297 18.0547L13.6328 15.4375L15.4297 12.8594C15.7422 12.4297 15.625 11.8438 15.1953 11.5703C14.7656 11.2578 14.1797 11.375 13.9062 11.8047L12.5 13.8359L11.0547 11.8047Z"/>
</svg>

<svg xmlns="http://www.w3.org/2000/svg" width="24" height="24" fill="currentColor" class="icon-file-excel-solid" viewBox="0 0 24 24">
  <path d="M7.5 2h6.25v5c0 .703.547 1.25 1.25 1.25h5V19.5c0 1.406-1.133 2.5-2.5 2.5h-10A2.47 2.47 0 0 1 5 19.5v-15C5 3.133 6.094 2 7.5 2M15 2l5 5h-5zm-3.945 9.805a.897.897 0 0 0-1.29-.235.897.897 0 0 0-.234 1.29l1.797 2.578-1.797 2.617c-.312.39-.195.976.235 1.289a.897.897 0 0 0 1.289-.235l1.445-2.03 1.406 2.03c.313.43.86.547 1.29.235.429-.313.546-.86.234-1.29l-1.797-2.616 1.797-2.579a.897.897 0 0 0-.235-1.289.897.897 0 0 0-1.289.235l-1.406 2.03z"/>
</svg>
